X: 27190
T: Miss Montgomery
R: reel
M: 4/4
K: Dmajor
d3A FDFA|dedB cdec|dedA FA A2|Beed cABc|
d2AG FDFA|dfaf gfec|dBAG FA A2|Beed cABc|
d2 Ad BdAd|d2Ad cdec|d2Ad BdAB|efed cABc|
d2Ad BdAd|d2Ad cdec|d3e fa a2|bafe cABc|

